X:1
T:Vincent Campbell's Mazurka #2
T:Phroinsias Ui Mhaonaigh's Mazurka #2
R:mazurka
D:The Brass Fiddle
D:Mairead Ni Mhaonaigh &amp; Frankie Kennedy: Ceol Aduaidh
D:Fiddle Sticks, Irish Traditional Music from Donegal
L:1/8
M:3/4
K:G
GA|B2 BA GE|DB, D2 B,D|EC E2 CE|DB, D2 GA|B2 BA GE|DB, D2 B,D|E2 F2 D2|G4:|
GA|B2 Bc dB|cB c2 DF|A2 A2 dc|BA B2 DG|B2 B2 dB|cB c2 DF|A2 Ac BA|G4:|
</abc>
<abc>
